svgs/materials/action/rocket_launch.svg

<svg xmlns="http://www.w3.org/2000/svg" enable-background="new 0 0 24 24" height="24" viewBox="0 0 24 24" width="24"><g><rect fill="none" height="24" width="24"/></g><g><g><path d="M9.19,6.35c-2.04,2.29-3.44,5.58-3.57,5.89L2,10.69l4.05-4.05c0.47-0.47,1.15-0.68,1.81-0.55L9.19,6.35L9.19,6.35z M11.17,17c0,0,3.74-1.55,5.89-3.7c5.4-5.4,4.5-9.62,4.21-10.57c-0.95-0.3-5.17-1.19-10.57,4.21C8.55,9.09,7,12.83,7,12.83 L11.17,17z M17.65,14.81c-2.29,2.04-5.58,3.44-5.89,3.57L13.31,22l4.05-4.05c0.47-0.47,0.68-1.15,0.55-1.81L17.65,14.81 L17.65,14.81z M9,18c0,0.83-0.34,1.58-0.88,2.12C6.94,21.3,2,22,2,22s0.7-4.94,1.88-6.12C4.42,15.34,5.17,15,6,15 C7.66,15,9,16.34,9,18z M13,9c0-1.1,0.9-2,2-2s2,0.9,2,2s-0.9,2-2,2S13,10.1,13,9z"/></g></g></svg>

<?xml version="1.0" encoding="UTF-8" standalone="no"?>
<svg
   enable-background="new 0 0 24 24"
   height="24"
   viewBox="0 0 24 24"
   width="24"
   version="1.1"
   id="svg12"
   sodipodi:docname="rocket_launch.svg"
   inkscape:version="1.2 (dc2aeda, 2022-05-15)"
   xmlns:inkscape="http://www.inkscape.org/namespaces/inkscape"
   xmlns:sodipodi="http://sodipodi.sourceforge.net/DTD/sodipodi-0.dtd"
   xmlns="http://www.w3.org/2000/svg"
   xmlns:svg="http://www.w3.org/2000/svg">
  <defs
     id="defs16" />
  <sodipodi:namedview
     id="namedview14"
     pagecolor="#ffffff"
     bordercolor="#000000"
     borderopacity="0.25"
     inkscape:showpageshadow="2"
     inkscape:pageopacity="0.0"
     inkscape:pagecheckerboard="0"
     inkscape:deskcolor="#d1d1d1"
     showgrid="false"
     inkscape:zoom="9.8333333"
     inkscape:cx="11.949153"
     inkscape:cy="12"
     inkscape:window-width="1309"
     inkscape:window-height="456"
     inkscape:window-x="0"
     inkscape:window-y="25"
     inkscape:window-maximized="0"
     inkscape:current-layer="svg12" />
  <path
     id="rect2"
     style="fill:none"
     d="M 0,0 H 24 V 24 H 0 Z" />
  <path
     d="M 9.19,6.35 C 7.15,8.64 5.75,11.93 5.62,12.24 L 2,10.69 6.05,6.64 C 6.52,6.17 7.2,5.96 7.86,6.09 Z M 11.17,17 c 0,0 3.74,-1.55 5.89,-3.7 5.4,-5.4 4.5,-9.62 4.21,-10.57 C 20.32,2.43 16.1,1.54 10.7,6.94 8.55,9.09 7,12.83 7,12.83 Z m 6.48,-2.19 c -2.29,2.04 -5.58,3.44 -5.89,3.57 l 1.55,3.62 4.05,-4.05 c 0.47,-0.47 0.68,-1.15 0.55,-1.81 z M 9,18 C 9,18.83 8.66,19.58 8.12,20.12 6.94,21.3 2,22 2,22 2,22 2.7,17.06 3.88,15.88 4.42,15.34 5.17,15 6,15 c 1.66,0 3,1.34 3,3 z m 4,-9 c 0,-1.1 0.9,-2 2,-2 1.1,0 2,0.9 2,2 0,1.1 -0.9,2 -2,2 -1.1,0 -2,-0.9 -2,-2 z"
     id="path6" />
</svg>
